!!!OTL: Spottlied auf ein vornehm thuendes Maedchen
!!!ARE: Europa, Mitteleuropa, Deutschland
!!!SCT: A0468
!!!YEM: Copyright 1995, estate of Helmut Schaffrath.
**kern
*ICvox
*Ivox
*M4/2
*k[f#]
*G:
{2gg
=1
1gg
2gg
2gg
=2
1ffn
2ee}
{2dd
=3
2ee
2dd
2dd
2cc
=4
1dd
2r}
{2gg
=5
1gg
2gg
2gg
=6
1ffn
2ee}
{2dd
=7
2ee
2dd
2dd
2cc
=8
1dd
2r}
{2gg
=9
2ffn
2dd
2cc
2b-
=10
2a
2g
2a}
{2gg
=11
2ffn
2dd
2cc
2b-
=12
2a
2g
2dd}
{2ee
=13
2dd
2cc
2a
4r
4g
=14
2cc
2a
2g}
==
!!!AGN: Romanze, Ballade, Lied
!! Forster II 1540 No. 74.
!!!ONB: ESAC (Essen Associative Code) Database: ALTDEU
!!!AMT: simple quadruple
!!!AIN: vox
!!!EED: Helmut Schaffrath
!!!EEV: 1.0
*-
